!!!SOCIAL_FUNCTION: man chief's songs
!!!PDT:	1929
!!!LING_GROUP: Caddoan
!!!LANG: Non-Tone
!!!REG: Oklahoma
!!!COM: Anon.
!!!OTL: O Expanse of the Heavens
!!!ODT: <1920//
!!!MPN: Laduda desadu [He does everything as a chief, John Luwak]
!!!MLC: Pawnee, Oklahoma, United States of America
!! Song was recorded either 1919 or 1920.
!!!AGN: monody
!!!AMT: simple duple
!!!RWG: Transcribed pitches, durations, and meters are only approximate.
!! Drum not recorded
**kern
*ICvox
*Imale
*clefF4
*k[b-]
*MM104
*[A,B,B]
*>A
*M2/4
8f
=1
4.f
8f
=2
4.f
8d
=3
4.c
8c
=4
4.c
8c
=5
4.Bn
*>B
8d
=6
4.c
8d
=7
4.c
8A
=8
4.F
8F
=9
4.F
8F
=10
4.F
8c
=11
4.A
8c
=12
4.F
8A
=13
4.F
8F
=14
4.F
8A
=15
4.F
8F
=16
2F
=17
[2F
=18
2F]
=19
2F
=20
4.F
==:|!
*-
!!!HAO:    The next song contains the same idea of the "ruling power in the
!!!HAO: heavens."
!!!HTX: I believe that in you, O heavens, dwell the ruling powers.
!!!CNT: Pawnee
!!!TXO: Pawnee
!!!OCY: United States
!!!OCL: Frances Densmore
!!!YOR: Frances Densmore, "Pawnee Music"
!!!YOR: Bulletin 93, page 89, No. 62
!!!PPR: Smithsonian Institution, Bureau of American Ethnology
!!!PPR: Government Printing Office
!!!PDT: 1926
!!!PPP: Washington, DC, United States of America
!!!YEC: Electronic Copyright 2000 David Huron
!!!YER: September 2000
!!!YEN: United States of America
!!!ENC: David Huron
!!!RDT: September 5, 2000
!!!EEV: Release 1.0
!!!AIN: vox
